X:1
T:Serect - Piano battle part one
T:Secret - Piano battle part one
T:Chopin - Etude Op. 10 No. 5 (Black Keys) Improv
T:Composed by Fryderyk Franciszek Chopin Arrangement by Jay Chou & Yuhao Zhan Transcripted by nashritik1 
T:2020
T:2020
T:2020
C:Fryderyk Franciszek Chopin
Z:2020
%%score { 1 | 2 }
L:1/8
Q:1/4=100
M:2/4
K:F#
V:1 treble nm="Piano" snm="Pno."
V:2 treble 
V:1
!mp!!8va(!!ped!!<(! d''/8c''/8a'/8g'/8f'/8d'/8c'/8a/8!8va)![I:staff +1]a/8g/8f/8d/8c/8A/8G/8F/8[I:staff -1]a/8g/8f/8d/8c/8A/8G/8F/8D/8C/8A,/8G,/8F,/8D,/8C,/8A,,/8!ped-up! | %1
[I:staff +1] A,,,,/8C,,,/8D,,,/8F,,,/8G,,,/8A,,,/8!ped!C,,/8D,,/8F,,/8G,,/8A,,/8C,/8D,/8F,/8G,/8A,/8[I:staff -1]C/8D/8F/8G/8A/8c/8d/8f/8g/8a/8c'/8d'/8f'/8g'/8a'/8!<)![Q:1/4=12]!mf!!fermata!c''/8!ped-up! | %2
[M:4/4]!mf![Q:1/4=180]!8va(! (3f'a'c' (3f'd'f' (3c'f'a!8va)! (3c'fa | %3
!f!!>(! (3f!ped!ac (3f!ped-up!df (3cfA (3cFA | (3z!ped! cG (3cG!>)!!mf!g (3Ggd (3gdd'!ped-up! | %5
!8va(! (3d!ped!d'g!>(! (3d'gg' (3gg'!>!c' (3g'!ped-up!c'!>)!!mp!c''!8va)! | %6
!mf!!8va(!!<(! (3f'a'c' (3f'd'f' (3c'f'a!8va)! (3c'fa!<)! | %7
!f!!>(! (3f!ped!ac (3f!ped-up!df (3cfA (3cF!>)!!mp!A | %8
 (3D!ped!dG (3d!<(!Gg (3dgd!8va(! (3d'gg'!ped-up! | %9
 (3a!ped!a'a (3!>!a'a!<)!!mf!a' (3aa'a (3a'aa'!8va)!!ped-up! | %10
[K:D][Q:1/4=135]!8va(! (3b!ped![Q:1/4=134]"^.1"!<(!b'[Q:1/4=131]"^.5"b"^.decelerando"[Q:1/4=127]"^.4" (3b'[Q:1/4=121]"^.7"b[Q:1/4=114]"^.5"b'[Q:1/4=105]"^.7" (3b[Q:1/4=95]"^.5"b'[Q:1/4=83]"^.8"b[Q:1/4=70]"^.7" (3b'[Q:1/4=56]"^.1"b!<)!!ff![Q:1/4=40]!fermata!b'!8va)!!ped-up! | %11
!f![Q:1/4=180]!8va(! (3g'b'd'!>(! (3g'e'g' (3d'g'b!8va)! (3d'gb!>)! | %12
!mf! (3g!ped!bd!<(! (3g!ped-up!eg (3dgB (3dG!<)!!f!B | %13
 (3z!ped! dA (3d!>(!Aa (3Aae (3aee'!>)!!ped-up! | %14
!mf!!8va(! (3e!ped!e'a (3e'aa' (3a!>(!a'd' (3a'd'!>)!!mp!d''!8va)!!ped-up! | %15
!mf!!8va(! (3g'b'd'!<(! (3g'e'g' (3d'g'b!8va)! (3d'gb!<)! | %16
!f! (3g!ped!bd (3g!ped-up!e!>(!g (3dgB (3dGB!>)! | %17
!mf! (3E!ped!eA (3eAa (3E!ped-up!!ped!eA (3e!<(!Aa | %18
 (3D!ped!dG (3d!ped-up!Gg (3G!ped!g!<)!!f!d (3g!ped-up!dd' | %19
 (3=c'!ped!=ce (3b!ped-up!B!>(!e (3gab (3de!>)!!mf!^^f | (3z bd (3geg (3d!ped!gB (3d!ped-up!GB | %21
 (3G!ped!B!>(!D (3G!ped-up!EG (3D!ped!GB,!8vb(! (3D!ped-up!G,!>)!!mp!!>!B, | %22
!f! .G,2!8vb)! z2!ff!!8va(! .[gbd'g']2!8va)! z2 |] %23
V:2
 x x x2 |[K:bass] x2 x2 |[M:4/4] .[F,A,C]2 .[F,B,D]2 .[F,A,C]2 z2 | %3
 .[F,,F,]2 .[F,B,D]2 .[F,A,C]2 z2 | [C,,C,]2 [G,CE]2 [G,B,D]2 G,,2 | C,2 [G,B,D]2 [G,B,C]2 z2 | %6
 .[F,A,C]2 .[F,B,D]2 .[F,A,C]2 z2 | [F,,F,]2 .[F,B,D]2 .[F,A,C]2 z2 | B,,2 [G,B,D]2 z2 B,,2 | %9
 !arpeggio![A,,E,A,=D]4 z4 |[K:D] !arpeggio![B,,G,B,D]4 z4 | .[B,DG]2 .[=CEG]2 .[B,DG]2 z2 | %12
 [G,,G,]2 .[=CEG]2 .[B,DG]2 z2 | [D,,D,]2 [A,DF]2 [A,=CE]2 A,,2 | D,2 [A,=CE]2 [A,CD]2 z2 | %15
 .[B,DG]2 .[=CEG]2 .[B,DG]2 z2 | [G,,G,]2 .[=CEG]2 .[B,DG]2 z2 | C,2 [A,CE]2 =C,2 [A,=CE]2 | %18
 B,,2 [G,B,D]2 E,2 [G,B,E]2 | A,,2 [A,=CE]2 D,2 .[A,CD]2 | .[G,,G,]2 .[G,=CE]2 [G,B,D]2 z2 | %21
 [G,,,G,,]2 .[G,,=C,E,]2 [G,,B,,D,]2 z2 |!8vb(! .[G,,,G,,]2 z2 .[G,,,G,,]2!8vb)! z2 |] %23

